!!!!SEGMENT: pl-cz--iii-197--006_elsner-jozef--missa-c-op-22-sanctus.krn
!!!cenid: 18xx:265
!!!COM: Elsner, Józef
!!!COM-rismID: pe30000957
!!!CDT: 1769/06/01-1854/04/18
!!!CNT: Polish
!!!OPR: Missa C op. 22
!!!OTL: Sanctus
!!!OMV: 006
!!!PDT:
!!!AGN: Sacred; Mass
!!!SMS-siglum: PL-CZ
!!!SMS-shelfmark: III-197
!!!SMS-shelfwork: 001-006 M
!!!NIFC-rismSourceID:
!!!NIFC-islandoraID: pl-cz:36373
!!!URL-pdf-islandora: https://repozytorium.nifc.pl/islandora/object/pl-cz%3A36373/datastream/PDF/view
!!!URL-scan:
!!!ONB-nifc: UWAGA: części Mszy: Kyrie, Gloria, Graduale, Credo, Offertorio, Sanctus, Benedictus, Agnus
!!!AIN: 4 cor 5 empty 2 tenor 1 timpa
!!!key:
**kern	**kern	**text	**kern	**text	**kern	**text	**kern	**text	**kern	**kern	**kern	**kern	**kern	**kern	**kern
*part12	*part11	*part11	*part10	*part10	*part9	*part9	*part8	*part8	*part7	*part6	*part5	*part4	*part3	*part2	*part1
*staff12	*staff11	*staff11	*staff10	*staff10	*staff9	*staff9	*staff8	*staff8	*staff7	*staff6	*staff5	*staff4	*staff3	*staff2	*staff1
*group4	*group3	*	*group3	*	*group3	*	*group3	*	*group2	*group1	*group1	*group1	*group1	*group1	*group1
*Iempty	*Iempty	*	*Iempty	*	*Itenor	*	*Itenor	*	*Itimpa	*Iempty	*Iempty	*Icor	*Icor	*Icor	*Icor
*I"Baſso	*I"Baſso 2do	*	*I"Baſso 1mo	*	*I"Tenore 2do	*	*I"Tenore 1mo	*	*I"Tympano in C G	*I"Clarino 2do in C	*I"Clarino 1mo in C	*I"Corno 2do in C	*I"Corno 1mo in C	*I"Corno 2do in F	*I"Corno 1mo in F
*I'B	*I'B II	*	*I'B I	*	*I'T II	*	*I'T I	*	*I'Timp	*I'Clno II in C	*I'Clno I in C	*I'Cor II in C	*I'Cor I in C	*I'Cor II in F	*I'Cor I in F
*clefF4	*clefF4	*	*clefF4	*	*clefC4	*	*clefC4	*	*clefF4	*clefG2	*clefG2	*clefG2	*clefG2	*clefG2	*clefG2
*	*	*	*	*	*	*	*	*	*	*	*	*ITrd0c0	*ITrd0c0	*ITrd4c7	*ITrd4c7
*k[]	*k[]	*	*k[]	*	*k[]	*	*k[]	*	*k[]	*k[]	*k[]	*k[]	*k[]	*k[b-]	*k[b-]
*C:	*C:	*	*C:	*	*C:	*	*C:	*	*C:	*C:	*C:	*C:	*C:	*C:	*C:
*	*	*	*	*	*	*	*	*	*	*	*	*	*	*	*
*M3/4	*M3/4	*	*M3/4	*	*M3/4	*	*M3/4	*	*M3/4	*M3/4	*M3/4	*M3/4	*M3/4	*M3/4	*M3/4
=1	=1	=1	=1	=1	=1	=1	=1	=1	=1	=1	=1	=1	=1	=1	=1
*	*	*	*2\right	*	*2\right	*	*2\right	*	*	*	*	*	*	*	*
!LO:TX:a:t=1	!	!	!LO:TX:a:t=problem:laseczki nut w dół z prawej strony	!	!LO:TX:a:t=problem:laseczki nut w dół z prawej strony	!	!LO:TX:a:t=problem:laseczki nut w dół z prawej strony	!	!	!LO:N:vis=2	!LO:N:vis=2	!	!LO:N:vis=2	!LO:N:vis=2	!LO:N:vis=2
!LO:TX:a:B:t=Andante	!LO:TX:a:B:t=Andante	!	!LO:TX:a:B:t=Andante	!	!LO:TX:a:B:t=Andante	!	!LO:TX:a:B:t=Andante	!	!LO:TX:a:t=problem:brak skanu	!LO:TX:a:B:t=Andante	!LO:TX:a:B:t=Andante	!LO:TX:a:t=problem:brak skanu	!LO:TX:a:B:t=Andante	!LO:TX:a:B:t=Andante	!LO:TX:a:B:t=Andante
!	!	!	!	!	!	!	!	!	!	!	!LO:TX:b:t=1	!	!LO:TX:b:t=1	!	!
2.r	2.C/	San-	2.G\	San-	2.c\	San-	2.e\	San-	2.ryy	2.r	2.r	2.ryy	2.r	2.r	2.r
=2	=2	=2	=2	=2	=2	=2	=2	=2	=2	=2	=2	=2	=2	=2	=2
4r	2C/	-ctus	2G\	-ctus	2c\	-ctus	2e\	-ctus	2.ryy	4r	4r	2.ryy	4r	4r	4r
8.r	.	.	.	.	.	.	.	.	.	8.r	8.r	.	8.r	8.r	8.r
!	!	!	!	!	!	!	!	!	!	!LO:TX:a:t=problem:laseczki nut w dół z prawej strony	!LO:TX:a:t=problem:laseczki nut w dół z prawej strony	!	!LO:TX:a:t=problem:laseczki nut w dół z prawej strony	!LO:TX:a:t=problem:laseczki nut w dół z prawej strony	!LO:TX:a:t=problem:laseczki nut w dół z prawej strony
16C/KL	.	.	.	.	.	.	.	.	.	16c/KL	16cc\KL	.	16cc\KL	16e\KL	16g\KL
8.C/	4r	.	4r	.	4r	.	4r	.	.	8.c/	8.cc\	.	8.cc\	8.e\	8.g\
16C/Jk	.	.	.	.	.	.	.	.	.	16c/Jk	16cc\Jk	.	16cc\Jk	16e\Jk	16g\Jk
=3	=3	=3	=3	=3	=3	=3	=3	=3	=3	=3	=3	=3	=3	=3	=3
*2\right	*2\right	*	*	*	*	*	*	*	*	*	*2\right	*	*2\right	*2\right	*2\right
!LO:TX:a:t=problem:laseczki nut w dół z prawej strony	!LO:TX:a:t=problem:laseczki nut w dół z prawej strony	!	!	!	!	!	!	!	!	!	!	!	!	!	!
2F\	2.F\	{San-	2.A\	{San-	2.c\	{San-	2.f\	{San-	2.ryy	2c/	2cc\	2.ryy	2cc\	2f\	2a\
4r	.	.	.	.	.	.	.	.	.	4r	4r	.	4r	4r	4r
=4	=4	=4	=4	=4	=4	=4	=4	=4	=4	=4	=4	=4	=4	=4	=4
!	!	!	!	!	!	!	!	!	!	!LO:TX:a:t=3.	!LO:TX:a:t=3.	!	!	!	!
!	!	!	!	!	!	!	!	!	!	!LO:N:vis=0	!LO:N:vis=0	!	!	!	!
4r	2F\	-ctus}	2A\	-ctus}	2c\	-ctus}	2f\	-ctus}	2.ryy	1.r	1.r	2.ryy	4r	4r	4r
8.r	.	.	.	.	.	.	.	.	.	.	.	.	8.r	8.r	8.r
16F\KL	.	.	.	.	.	.	.	.	.	.	.	.	16cc\KL	16f\KL	16a\KL
8.F\	4r	.	4r	.	4r	.	4r	.	.	.	.	.	8.cc\	8.f\	8.a\
16F\Jk	.	.	.	.	.	.	.	.	.	.	.	.	16cc\Jk	16f\Jk	16a\Jk
=5	=5	=5	=5	=5	=5	=5	=5	=5	=5	=5	=5	=5	=5	=5	=5
2D\	2.D\	{San-	2.A\	{San-	2d\	san-	2.f\	{San-	2.ryy	.	.	2.ryy	2dd\	2f\	2a\
4r	.	.	.	.	4c\	.	.	.	.	.	.	.	4r	4r	4r
=6	=6	=6	=6	=6	=6	=6	=6	=6	=6	=6	=6	=6	=6	=6	=6
4r	2D\	-ctus}	2A\	-ctus}	2d\	-ctus	2f\	-ctus}	2.ryy	2.r	2.r	2.ryy	4r	4r	4r
8.r	.	.	.	.	.	.	.	.	.	.	.	.	8.r	8.r	8.r
16D\KL	.	.	.	.	.	.	.	.	.	.	.	.	16dd\KL	16f\KL	16a\KL
8.D\	4r	.	4r	.	4r	.	4r	.	.	.	.	.	8.dd\	8.f\	8.a\
16D\Jk	.	.	.	.	.	.	.	.	.	.	.	.	16dd\Jk	16f\Jk	16a\Jk
=7	=7	=7	=7	=7	=7	=7	=7	=7	=7	=7	=7	=7	=7	=7	=7
4G\	4.G\	Do-	4.G\	Do-	4.B\	Do-	4.d\	Do-	2.ryy	4g/	4dd\	2.ryy	4dd\	4f\	4g\
4r	.	.	.	.	.	.	.	.	.	4r	4r	.	4r	4r	4r
.	8G\	-mi-	8G\	-mi-	8A#X\	-mi-	8c#X\	-mi-	.	.	.	.	.	.	.
!	!	!	!	!	!	!	!	!	!	!	!LO:TX:a:t=problem:niejednoznaczny zapis - pauza/dźwięk g	!	!	!	!
4r	4G\	-nus	4G\	-nus	4B\	-nus	4d\	-nus	.	4r	4r	.	4r	4r	4r
=8	=8	=8	=8	=8	=8	=8	=8	=8	=8	=8	=8	=8	=8	=8	=8
!	!	!	!LO:LB:g=original	!	!LO:LB:g=original	!	!LO:LB:g=original	!	!	!	!	!	!LO:LB:g=original	!	!
*	*	*	*	*	*	*	*	*	*	*	*	*	*	*	*rep
4C/	2C/	De-	(4.G\	De-	2c\	De-	(4.e\	De-	2.ryy	4cc\	4ee\	2.ryy	4ee\	4c/	4g\
4r	.	.	.	.	.	.	.	.	.	4r	4r	.	4r	4r	4r
.	.	.	8F#X\)	.	.	.	8d#X\)	.	.	.	.	.	.	.	.
4r	4C/	-us	4G\	-us	4c\	-us	4e\	-us	.	4r	4r	.	4r	4r	4r
*	*	*	*	*	*	*	*	*	*	*	*	*	*	*	*Xrep
=9	=9	=9	=9	=9	=9	=9	=9	=9	=9	=9	=9	=9	=9	=9	=9
!LO:LB:g=original	!LO:LB:g=original	!	!	!	!	!	!	!	!	!	!	!	!	!	!
4r	2BB/	Sa-	2.G\	Sa-	2d\	Sa-	2f\	Sa-	2.ryy	4r	4r	2.ryy	4r	4r	4r
4BB/	.	.	.	.	.	.	.	.	.	4g/	4dd\	.	4dd\	4f\	4g\
4C/	4C/	.	.	.	4c\	.	4e\	-ba-	.	4cc\	4ee\	.	4ee\	4e\	4g\
=10	=10	=10	=10	=10	=10	=10	=10	=10	=10	=10	=10	=10	=10	=10	=10
!	!	!	!	!	!	!	!	!	!	!LO:LB:g=original	!	!	!	!	!LO:LB:g=original
4GG/	2.GG/	.	4.G\	.	2B\	.	4d\	-oth	2.ryy	4g/	4dd\	2.ryy	4dd\	4g\	4g\
4r	.	.	.	.	.	.	4d#X\	Sa-	.	4r	4r	.	4r	4r	4r
.	.	.	8F\	.	.	.	.	.	.	.	.	.	.	.	.
!	!	!	!	!	!	!	!	!	!	!	!	!	!	!LO:N:vis=2	!
4r	.	.	4E\	.	4c\	.	4e\	-ba-	.	4r	4r	.	4r	4r	4r
=11	=11	=11	=11	=11	=11	=11	=11	=11	=11	=11	=11	=11	=11	=11	=11
!	!	!	!	!	!	!	!	!	!	!	!	!	!	!LO:LB:g=original	!
*rep	*	*	*	*	*	*	*	*	*	*	*	*	*	*	*rep
4GG/	2.GG/	.	4.D\	.	4.B\	.	2.f\	-oth	2.ryy	4r	4r	2.ryy	4dd\	4g\	4g\
4r	.	.	.	.	.	.	.	.	.	4g/	4dd\	.	4r	4r	4r
.	.	.	8C#X\	.	8A#X\	.	.	.	.	.	.	.	.	.	.
4r	.	.	4D\	.	4B\	.	.	.	.	4g/	4dd\	.	4r	4r	4r
*Xrep	*	*	*	*	*	*	*	*	*	*	*	*	*	*	*Xrep
=12	=12	=12	=12	=12	=12	=12	=12	=12	=12	=12	=12	=12	=12	=12	=12
!	!	!	!	!	!	!	!	!	!	!LO:TX:a:t=problem:brak t. 12 (porównując do pozostałych partii)	!LO:TX:a:t=problem:brak t. 12 (porównując do pozostałych partii)	!	!	!	!
[2.GG/	2.GG/	-ba-	2D\	.	2B\	.	2f\	Sa-	2.ryy	2.ryy	2.ryy	2.ryy	[2.dd\	[2.g\	2.g\
.	.	.	4F\	-ba-	4B\	-ba-	4d\	-ba-	.	.	.	.	.	.	.
=13	=13	=13	=13	=13	=13	=13	=13	=13	=13	=13	=13	=13	=13	=13	=13
!	!	!	!	!	!	!	!	!	!	!	!LO:LB:g=original	!	!	!	!
2GG/]	2GG/	-oth.	2F\	-oth.	2B\	-oth.	2d\	-oth.	2.ryy	2g/	2dd\	2.ryy	2dd\]	2g\]	2g\
4r;	4r;	.	4r;	.	4r;	.	4r;	.	.	4r;	4r;	.	4r;	4r;	4r;
=14||	=14||	=14||	=14||	=14||	=14||	=14||	=14||	=14||	=14||	=14||	=14||	=14||	=14||	=14||	=14||
*M6/8	*M6/8	*	*M6/8	*	*M6/8	*	*M6/8	*	*M6/8	*M6/8	*M6/8	*M6/8	*M6/8	*M6/8	*M6/8
!	!LO:TX:a:t=2.	!	!LO:LB:g=original	!	!LO:TX:a:t=2.	!	!LO:LB:g=original	!	!	!	!	!	!	!	!
!LO:TX:a:B:t=Allegro ma non troppo	!LO:TX:a:B:t=Allo ma non troppo	!	!LO:TX:a:B:t=Allegro non troppo	!	!LO:TX:a:B:t=Allegro ma non troppo	!	!LO:TX:a:B:t=Allegro ma non troppo	!	!	!LO:TX:a:B:t=Allo ma non troppo	!LO:TX:a:B:t=Allo ma non troppo	!	!LO:TX:a:B:t=Allo ma non troppo	!LO:TX:a:B:t=Allegro ma non troppo	!LO:TX:a:B:t=Allo ma non troppo
!	!LO:N:vis=0	!	!	!	!LO:N:vis=0	!	!	!	!	!	!	!	!	!	!
[4.C/	1.r	.	4.c\	Ple-	1.r	.	[<4.c\	Ple-	2.ryy	8.c/L	8.c/L	2.ryy	[4.cc\	4.c/	[4.g\
.	.	.	.	.	.	.	.	.	.	16e/K	16e/K	.	.	.	.
.	.	.	.	.	.	.	.	.	.	8g/J	8g/J	.	.	.	.
4C/]	.	.	8.c\	.	.	.	8.c\]	.	.	4e/	4cc\	.	8cc\]	8c/	8g\]
.	.	.	.	.	.	.	.	.	.	.	.	.	8r	8r	8r
.	.	.	16G\	-ni	.	.	16G\	-ni	.	.	.	.	.	.	.
!	!	!	!	!	!	!	!	!	!	!	!	!	!LO:TX:a:t=problem:brak pauzy ósemkowej	!	!
8r	.	.	8E\	sunt	.	.	8E/	sunt	.	8r	8r	.	8r	8r	8r
=15	=15	=15	=15	=15	=15	=15	=15	=15	=15	=15	=15	=15	=15	=15	=15
!LO:TX:a:t=1	!	!	!	!	!	!	!	!	!	!LO:N:vis=2	!LO:N:vis=2	!	!LO:N:vis=2	!LO:N:vis=2	!LO:N:vis=2
!	!	!	!	!	!	!	!	!	!	!	!	!	!LO:TX:a:t=1	!	!
2.r	.	.	8.c\	cae-	.	.	8.c\	cae-	2.ryy	2.r	2.r	2.ryy	2.r	2.r	2.r
.	.	.	16G\	-li	.	.	16G\	-li	.	.	.	.	.	.	.
.	.	.	8E\	et	.	.	8E/	et	.	.	.	.	.	.	.
.	.	.	4.C/	ter-	.	.	4.c\	ter-	.	.	.	.	.	.	.
=16	=16	=16	=16	=16	=16	=16	=16	=16	=16	=16	=16	=16	=16	=16	=16
[4.C/	[<4.c\	Ple-	4C/	-ra	[<4.e\	Ple-	4G/	-ra	2.ryy	8.c/L	8.c/L	2.ryy	4.ee\	4.c/	[4.g\
.	.	.	.	.	.	.	.	.	.	16e/K	16e/K	.	.	.	.
.	.	.	8r	.	.	.	8r	.	.	8g/J	8g/J	.	.	.	.
4C/]	8.c\]	.	[4.c\	glo-	8.e\]	.	[4.g\	glo-	.	4e/	4cc\	.	8ee\	8c/	8g\]
.	.	.	.	.	.	.	.	.	.	.	.	.	8r	8r	8r
.	16G\	-ni	.	.	16c\	-ni	.	.	.	.	.	.	.	.	.
8r	8E\	sunt	.	.	8G\	sunt	.	.	.	8r	8r	.	8r	8r	8r
=17	=17	=17	=17	=17	=17	=17	=17	=17	=17	=17	=17	=17	=17	=17	=17
!LO:TX:a:t=2.	!	!	!	!	!LO:LB:g=original	!	!	!	!	!LO:TX:a:t=2.	!LO:TX:a:t=2.	!	!LO:TX:a:t=2.	!LO:TX:a:t=2.	!LO:TX:a:t=2.
!LO:N:vis=0	!	!	!	!	!	!	!	!	!	!LO:N:vis=0	!LO:N:vis=0	!	!LO:N:vis=0	!LO:N:vis=0	!LO:N:vis=0
1.r	[4.c\	cae-	4.c\]	.	8.e\	ce-	2.g\_	.	2.ryy	1.r	1.r	2.ryy	1.r	1.r	1.r
.	.	.	.	.	16c\	-li	.	.	.	.	.	.	.	.	.
.	.	.	.	.	8G\	et	.	.	.	.	.	.	.	.	.
.	8.c\]	-li	4.G\	-ri-	4.e\	ter-	.	.	.	.	.	.	.	.	.
.	16G\	et	.	.	.	.	.	.	.	.	.	.	.	.	.
.	8E\	ter-	.	.	.	.	.	.	.	.	.	.	.	.	.
=18	=18	=18	=18	=18	=18	=18	=18	=18	=18	=18	=18	=18	=18	=18	=18
.	4C/	-ra	4E\	-a	4c\	-ra	8.g\]	.	2.ryy	.	.	2.ryy	.	.	.
.	.	.	.	.	.	.	16e\	-ri-	.	.	.	.	.	.	.
.	8r	.	8r	.	8r	.	8c\	-a	.	.	.	.	.	.	.
!	!	!	!	!	!	!	!LO:TX:a:t=problem:niewyraźne rozpoczęcie łuku	!	!	!	!	!	!	!	!
.	[4.C/	glo-	[4.c\	glo-	[4.e\	glo-	(4.g\	tu-	.	.	.	.	.	.	.
=19	=19	=19	=19	=19	=19	=19	=19	=19	=19	=19	=19	=19	=19	=19	=19
!	!LO:LB:g=original	!	!	!	!	!	!	!	!	!	!	!	!	!	!
!	!LO:N:vis=4.	!	!	!	!	!	!LO:LB:g=original	!	!	!	!	!	!LO:LB:g=original	!	!
4C/	4C/]	.	8.c\]	.	8.e\]	.	8.g\	.	2.ryy	4c/	4cc\	2.ryy	4cc\	4e\	4g\
.	.	.	16G\	-ri-	16c\	-ri-	16e\	.	.	.	.	.	.	.	.
8r	8C/	-ri-	8E\	-a	8G\	-a	8c\)	-a	.	8r	8r	.	8r	8r	8r
4C/	4.C/	-a	8.c\	glo-	8.e\	glo-	8.g\	glo-	.	4c/	4cc\	.	4cc\	4e\	4g\
.	.	.	16G\	-ri-	16c\	-ri-	16e\	-ri-	.	.	.	.	.	.	.
8r	.	.	8G\	-a	8G\	-a	8c\	-a	.	8r	8r	.	8r	8r	8r
=20	=20	=20	=20	=20	=20	=20	=20	=20	=20	=20	=20	=20	=20	=20	=20
!	!	!	!LO:LB:g=original	!	!	!	!	!	!	!LO:LB:g=original	!	!	!	!	!
[2.FF/	2.FF/ 2.F	tu-	2.A\	tu-	[2.c\	tu-	2.f\ [2.a	tu-	2.ryy	[>2.c/	[2.cc\	2.ryy	[2.cc\	[2.f\	[2.a\
=21	=21	=21	=21	=21	=21	=21	=21	=21	=21	=21	=21	=21	=21	=21	=21
!LO:LB:g=original	!	!	!	!	!	!	!	!	!	!	!	!	!	!	!
2FF/]	2FF/ 2F	-a	2A\	-a	2c\]	-a	2f\ 2a]	-a	2.ryy	2c/]	2cc\]	2.ryy	2cc\]	2f\]	2a\]
4r	4F/	O-	8r	.	8r	.	8r	.	.	4r	4r	.	8r	8r	8r
.	.	.	8r	.	8r	.	8r	.	.	.	.	.	8r	8r	8r
=22	=22	=22	=22	=22	=22	=22	=22	=22	=22	=22	=22	=22	=22	=22	=22
!	!	!	!	!	!	!	!	!	!	!	!	!	!	!	!LO:LB:g=original
!LO:TX:a:t=7.	!	!	!	!	!LO:TX:a:t=1.	!	!LO:TX:a:t=2.	!	!	!LO:TX:a:t=9.	!LO:TX:a:t=9.	!	!LO:TX:a:t=8.	!LO:TX:a:t=7.	!LO:TX:a:t=7.
!LO:N:vis=00	!	!	!	!	!	!	!LO:N:vis=0	!	!	!LO:N:vis=00	!LO:N:vis=00	!	!LO:N:vis=00	!LO:N:vis=00	!LO:N:vis=00
0.r	8.E\L	-san-	4r	.	2.r	.	1.r	.	2.ryy	0.r	0.r	2.ryy	0.r	0.r	0.r
.	16F\Jk	.	.	.	.	.	.	.	.	.	.	.	.	.	.
.	8E\	-na	8r	.	.	.	.	.	.	.	.	.	.	.	.
.	8.D\L	in	8r	.	.	.	.	.	.	.	.	.	.	.	.
.	.	.	4F\	O-	.	.	.	.	.	.	.	.	.	.	.
.	16E\Jk	.	.	.	.	.	.	.	.	.	.	.	.	.	.
.	8D\	ex-	.	.	.	.	.	.	.	.	.	.	.	.	.
=23	=23	=23	=23	=23	=23	=23	=23	=23	=23	=23	=23	=23	=23	=23	=23
.	4.C/	-cel-	8.E\L	-san-	4r	.	.	.	2.ryy	.	.	2.ryy	.	.	.
.	.	.	16F\Jk	.	.	.	.	.	.	.	.	.	.	.	.
.	.	.	8E\	-na	8r	.	.	.	.	.	.	.	.	.	.
.	4.BB/	-sis	8.D\L	in	8r	.	.	.	.	.	.	.	.	.	.
.	.	.	.	.	4G/	O-	.	.	.	.	.	.	.	.	.
.	.	.	16E\Jk	.	.	.	.	.	.	.	.	.	.	.	.
.	.	.	8D\	ex-	.	.	.	.	.	.	.	.	.	.	.
=24	=24	=24	=24	=24	=24	=24	=24	=24	=24	=24	=24	=24	=24	=24	=24
!	!LO:TX:a:t=problem:niejednoznaczny zapis łuku	!	!	!	!LO:LB:g=original	!	!	!	!	!	!	!	!	!	!
.	(>4.C/	De-	(4.E\	-cel-	8.G/L	-san-	4r	.	2.ryy	.	.	2.ryy	.	.	.
.	.	.	.	.	16A/Jk	.	.	.	.	.	.	.	.	.	.
.	.	.	.	.	8G/	-na	8r	.	.	.	.	.	.	.	.
.	4.GG/	.	4.F\)	.	8.G/L	in	8r	.	.	.	.	.	.	.	.
.	.	.	.	.	.	.	4d\	O-	.	.	.	.	.	.	.
.	.	.	.	.	16A/Jk	.	.	.	.	.	.	.	.	.	.
.	.	.	.	.	8B/	ex-	.	.	.	.	.	.	.	.	.
=25	=25	=25	=25	=25	=25	=25	=25	=25	=25	=25	=25	=25	=25	=25	=25
.	4C/)	-o	4E\	-sis	8.c\L	-cel-	8.e\L	-San-	2.ryy	.	.	2.ryy	.	.	.
.	.	.	.	.	16G\Jk	.	16d\Jk	.	.	.	.	.	.	.	.
.	8r	.	8r	.	8E\	-sis	8c\	-na	.	.	.	.	.	.	.
.	8r	.	8r	.	4G/	in	8.B\L	in	.	.	.	.	.	.	.
.	4D\	o-	4F\	O-	.	.	.	.	.	.	.	.	.	.	.
.	.	.	.	.	.	.	16A\Jk	.	.	.	.	.	.	.	.
.	.	.	.	.	8G/	ex-	8B\	ex-	.	.	.	.	.	.	.
=26	=26	=26	=26	=26	=26	=26	=26	=26	=26	=26	=26	=26	=26	=26	=26
!LO:N:vis=0	!LO:LB:g=original	!	!	!	!LO:N:vis=4	!	!LO:LB:g=original	!	!	!LO:N:vis=00	!LO:N:vis=00	!	!LO:N:vis=00	!LO:N:vis=0	!LO:N:vis=0
1.r	8.C/L	-san-	8.E\L	-san-	8G/	-cel-	8c\	-cel-	2.ryy	0.r	0.r	2.ryy	0.r	1.r	1.r
.	.	.	.	.	16G/	-sis	16c\	-sis	.	.	.	.	.	.	.
.	16D/Jk	.	16F\Jk	.	16r	.	16r	.	.	.	.	.	.	.	.
.	8E/	-na	8G\	-na	8r	.	8r	.	.	.	.	.	.	.	.
.	8.D\L	in	8.F\L	in	8r	.	8r	.	.	.	.	.	.	.	.
.	.	.	.	.	4B\	o-	4d\	o-	.	.	.	.	.	.	.
.	16E\Jk	.	16G\Jk	.	.	.	.	.	.	.	.	.	.	.	.
.	8D\	ex-	8F\	ex-	.	.	.	.	.	.	.	.	.	.	.
=27	=27	=27	=27	=27	=27	=27	=27	=27	=27	=27	=27	=27	=27	=27	=27
!	!	!	!LO:LB:g=original	!	!	!	!	!	!	!	!	!	!	!	!
.	8C/	-cel-	8E\	-cel-	8.c\L	-san-	8.e\L	-san-	2.ryy	.	.	2.ryy	.	.	.
.	16C/	-sis	16E\	-sis	.	.	.	.	.	.	.	.	.	.	.
.	16r	.	16r	.	16G\Jk	.	16d\Jk	.	.	.	.	.	.	.	.
.	8r	.	8r	.	8E/	-na	8c\	-na	.	.	.	.	.	.	.
.	8r	.	8r	.	4G/	in	8.B\L	in	.	.	.	.	.	.	.
.	4D\	o-	4F\	o-	.	.	.	.	.	.	.	.	.	.	.
.	.	.	.	.	.	.	16A\Jk	.	.	.	.	.	.	.	.
.	.	.	.	.	8G/	ex-	8B\	ex-	.	.	.	.	.	.	.
=28	=28	=28	=28	=28	=28	=28	=28	=28	=28	=28	=28	=28	=28	=28	=28
2.r	8.C/L	-san-	8.E\L	-san-	8G/	-cel-	8c\	-cel-	2.ryy	.	.	2.ryy	.	2.r	2.r
.	.	.	.	.	16E/	-sis	16c\	-sis	.	.	.	.	.	.	.
.	16D/Jk	.	16F\Jk	.	16r	.	16r	.	.	.	.	.	.	.	.
.	8E/	-na	8G\	-na	8r	.	8r	.	.	.	.	.	.	.	.
.	8.D\L	in	8.F\L	in	8r	.	8r	.	.	.	.	.	.	.	.
.	.	.	.	.	4B\	O-	4d\	o-	.	.	.	.	.	.	.
.	16E\Jk	.	16G\Jk	.	.	.	.	.	.	.	.	.	.	.	.
.	8D\	ex-	8F\	ex-	.	.	.	.	.	.	.	.	.	.	.
=29	=29	=29	=29	=29	=29	=29	=29	=29	=29	=29	=29	=29	=29	=29	=29
!	!	!	!	!	!LO:LB:g=original	!	!	!	!	!	!	!	!	!LO:LB:g=original	!
4r	8C/	-cel-	8E\	-cel-	8.c\L	-san-	[4.g\	-san-	2.ryy	.	.	2.ryy	.	4r	4r
.	16C/	-sis	16E\	-sis	.	.	.	.	.	.	.	.	.	.	.
.	16r	.	16r	.	16G\Jk	.	.	.	.	.	.	.	.	.	.
8r	8r	.	8r	.	8E\	-na	.	.	.	.	.	.	.	8r	8r
8.C/L	8.C/L	in	8.E\L	in	4c\	in	8.g\L]	.	.	.	.	.	.	4.c/	8.e\L
16D/K	16D/Jk	.	16F\Jk	.	.	.	16f\Jk	.	.	.	.	.	.	.	16f\K
8E/J	8E/	ex-	8G\	ex-	8c\	ex-	8e\	-na	.	.	.	.	.	.	8g\J
=30	=30	=30	=30	=30	=30	=30	=30	=30	=30	=30	=30	=30	=30	=30	=30
2.F\	4.F\	-cel-	4.A\	-cel-	4.A\	-cel-	8.e\L	in	2.ryy	2.r	2.r	2.ryy	4r	2.f\	2.a\
.	.	.	.	.	.	.	16d\Jk	.	.	.	.	.	.	.	.
.	.	.	.	.	.	.	8c#X\	ex-	.	.	.	.	8r	.	.
.	4.F\	-sis	4.A\	-sis	4.A\	-sis	8.d\L	-cel-	.	.	.	.	4.dd\	.	.
.	.	.	.	.	.	.	16e\Jk	.	.	.	.	.	.	.	.
.	.	.	.	.	.	.	8f\	-sis	.	.	.	.	.	.	.
=31	=31	=31	=31	=31	=31	=31	=31	=31	=31	=31	=31	=31	=31	=31	=31
!	!LO:LB:g=original	!	!	!	!	!	!LO:LB:g=original	!	!	!	!LO:LB:g=original	!	!	!	!
8G\	2.G\	De-	2.G\	De-	4.c\	De-	4.e\	De-	2.ryy	8r	8r	2.ryy	8ee\	8e\	8g\
8r	.	.	.	.	.	.	.	.	.	8e/L	8cc\L	.	8r	8r	8r
8r	.	.	.	.	.	.	.	.	.	8e/J	8cc\J	.	8r	8r	8r
8G\	.	.	.	.	8B\	-o,	4d\	-o,	.	8r	8r	.	8dd\	8g\	8g\
8r	.	.	.	.	8r	.	.	.	.	8g/L	8dd\L	.	8r	8r	8r
8r	.	.	.	.	8B\	o-	8d\	o-	.	8g/J	8dd\J	.	8r	8r	8r
=32	=32	=32	=32	=32	=32	=32	=32	=32	=32	=32	=32	=32	=32	=32	=32
4C/	4C/	-o	4G\	-o.	8.c\L	-san-	8.e\L	-san-	2.ryy	4e/	4cc\	2.ryy	4cc\	4e\	4g\
.	.	.	.	.	16G\Jk	.	16d\Jk	.	.	.	.	.	.	.	.
8r	8r	.	8r	.	8E\	-na	8c\	-na	.	8r	8r	.	8r	8r	8r
4r	8r	.	8r	.	4G/	in	8.B\L	in	.	4r	4r	.	4r	4r	4r
.	4D\	o-	4F\	O-	.	.	.	.	.	.	.	.	.	.	.
.	.	.	.	.	.	.	16A\Jk	.	.	.	.	.	.	.	.
!	!	!	!	!	!LO:TX:a:t=problem:6 taktów skreślonych (tt. 33-38)	!	!	!	!	!	!	!	!	!	!
8r	.	.	.	.	8G/	ex-	8B\	ex-	.	8r	8r	.	8r	8r	8r
=33	=33	=33	=33	=33	=33	=33	=33	=33	=33	=33	=33	=33	=33	=33	=33
!LO:TX:a:t=3.	!	!	!LO:LB:g=original	!	!LO:LB:g=original	!	!	!	!	!LO:TX:a:t=5.	!LO:TX:a:t=5.	!	!LO:TX:a:t=4.	!LO:TX:a:t=3.	!LO:TX:a:t=3.
!LO:N:vis=0	!	!	!	!	!	!	!	!	!	!LO:N:vis=00	!LO:N:vis=00	!	!LO:N:vis=00	!LO:N:vis=0	!LO:N:vis=0
1.r	8.C/L	-san-	8.E\L	-san-	8G/	-cel-	8c\	-cel-	2.ryy	0.r	0.r	2.ryy	0.r	1.r	1.r
.	.	.	.	.	16G/	-sis	16c\	-sis	.	.	.	.	.	.	.
.	16D/Jk	.	16F\Jk	.	16r	.	16r	.	.	.	.	.	.	.	.
.	8E/	-na	8G\	-na	8r	.	8r	.	.	.	.	.	.	.	.
!	!	!	!	!	!LO:TX:a:t=problem:brak pauzy ósemkowej	!	!	!	!	!	!	!	!	!	!
.	8.D/L	in	8.F\L	in	8ryy	.	8r	.	.	.	.	.	.	.	.
.	.	.	.	.	4B\	o-	4d\	O-	.	.	.	.	.	.	.
.	16E/Jk	.	16G\Jk	.	.	.	.	.	.	.	.	.	.	.	.
.	8D/	ex-	8F\	ex-	.	.	.	.	.	.	.	.	.	.	.
=34	=34	=34	=34	=34	=34	=34	=34	=34	=34	=34	=34	=34	=34	=34	=34
.	8C/	-cel-	8E\	-cel-	8.c\L	-san-	8.e\L	-san-	2.ryy	.	.	2.ryy	.	.	.
.	16C/	-sis	16E\	-sis	.	.	.	.	.	.	.	.	.	.	.
.	16r	.	16r	.	16G\Jk	.	16d\Jk	.	.	.	.	.	.	.	.
.	8r	.	8r	.	8E\	-na	8c\	-na	.	.	.	.	.	.	.
.	8r	.	8r	.	4G/	in	8.B\L	in	.	.	.	.	.	.	.
.	4D\	o-	4F\	o-	.	.	.	.	.	.	.	.	.	.	.
.	.	.	.	.	.	.	16A\Jk	.	.	.	.	.	.	.	.
.	.	.	.	.	8G/	ex-	8B\	ex-	.	.	.	.	.	.	.
=35	=35	=35	=35	=35	=35	=35	=35	=35	=35	=35	=35	=35	=35	=35	=35
!	!	!	!	!	!LO:LB:g=original	!	!	!	!	!	!	!	!	!	!
2.r	8.C/L	-san-	8.E\L	-san-	8G/	-cel-	8c\	-cel-	2.ryy	.	.	2.ryy	.	2.r	2.r
.	.	.	.	.	16G/	-sis	16c\	-sis	.	.	.	.	.	.	.
.	16D/Jk	.	16F\Jk	.	16r	.	16r	.	.	.	.	.	.	.	.
.	8E/	-na	8G\	-na	8r	.	8r	.	.	.	.	.	.	.	.
.	8.D\L	in	8.F\L	in	8r	.	8r	.	.	.	.	.	.	.	.
.	.	.	.	.	4B\	o-	4d\	O-	.	.	.	.	.	.	.
.	16E\Jk	.	16G\Jk	.	.	.	.	.	.	.	.	.	.	.	.
.	8D\	ex-	8F\	ex-	.	.	.	.	.	.	.	.	.	.	.
=36	=36	=36	=36	=36	=36	=36	=36	=36	=36	=36	=36	=36	=36	=36	=36
!	!	!	!	!	!	!	!LO:LB:g=original	!	!	!	!	!	!	!	!
4r	8C/	-cel-	8E\	-cel-	8.c\L	-san-	[4.g\	-san-	2.ryy	.	.	2.ryy	.	4r	4r
.	16C/	-sis	16E\	-sis	.	.	.	.	.	.	.	.	.	.	.
.	16r	.	16r	.	16G\Jk	.	.	.	.	.	.	.	.	.	.
8r	8r	.	8r	.	8E/	-na	.	.	.	.	.	.	.	8r	8r
8.C/L	8.C/L	in	8.E\L	in	4c\	in	8.g\L]	.	.	.	.	.	.	4.c/	8.e\L
16D/K	16D/K	.	16F\K	.	.	.	16f\Jk	.	.	.	.	.	.	.	16f\K
8E/J	8E/J	ex-	8G\J	ex-	8c\	ex-	8e\	-na	.	.	.	.	.	.	8g\J
=37	=37	=37	=37	=37	=37	=37	=37	=37	=37	=37	=37	=37	=37	=37	=37
!	!LO:LB:g=original	!	!LO:LB:g=original	!	!	!	!	!	!	!	!	!	!	!	!
2.F\	4.F\	-cel-	4.A\	-cel-	4.A\	-cel-	8.e\L	in	2.ryy	2.r	2.r	2.ryy	4r	2.f\	2.a\
.	.	.	.	.	.	.	16d\Jk	.	.	.	.	.	.	.	.
.	.	.	.	.	.	.	8c#X\	ex-	.	.	.	.	8r	.	.
.	4.F\	-sis	4.A\	-sis	4.A\	-sis	8.d\L	-cel-	.	.	.	.	4.dd\	.	.
.	.	.	.	.	.	.	16e\Jk	.	.	.	.	.	.	.	.
.	.	.	.	.	.	.	8f\	-sis	.	.	.	.	.	.	.
=38	=38	=38	=38	=38	=38	=38	=38	=38	=38	=38	=38	=38	=38	=38	=38
8G\	[4.G\	De-	2.G\	De-	8.c\L	De-	8.e\L	De-	2.ryy	8r	8r	2.ryy	8ee\	8e\	8g\
8r	.	.	.	.	.	.	.	.	.	8e/L	8cc\L	.	8r	8r	8r
.	.	.	.	.	16G\K	.	16c\K	.	.	.	.	.	.	.	.
8r	.	.	.	.	8E\J	.	8G\J	.	.	8e/J	8cc\J	.	8r	8r	8r
!LO:TX:a:t=SIC:s=8G	!	!	!	!	!	!	!	!	!	!	!	!	!	!	!
8F\	8.G\L]	.	.	.	4.c\	.	4.e\	.	.	8r	8r	.	8ee\	8e\	8g\
8r	.	.	.	.	.	.	.	.	.	8e/L	8cc\L	.	8r	8r	8r
.	16E\K	.	.	.	.	.	.	.	.	.	.	.	.	.	.
8r	8C\J	.	.	.	.	.	.	.	.	8e/J	8cc\J	.	8r	8r	8r
=39	=39	=39	=39	=39	=39	=39	=39	=39	=39	=39	=39	=39	=39	=39	=39
!LO:LB:g=original	!	!	!	!	!	!	!	!	!	!	!	!	!LO:LB:g=original	!	!
2.G\	2.GG/	.	4.G\	-o	8.c\L	.	8.e\L	.	2.ryy	4e/	4cc\	2.ryy	2.ee\	2.e\	2.g\
.	.	.	.	.	16G\K	.	16c\K	.	.	.	.	.	.	.	.
.	.	.	.	.	8E\J	.	8G\J	.	.	8r	8r	.	.	.	.
.	.	.	8.c\L	De-	8.e\L	.	8.g\L	.	.	4e/	4cc\	.	.	.	.
.	.	.	16G\K	.	16c\K	.	16e\K	.	.	.	.	.	.	.	.
.	.	.	8E\J	.	8G\J	.	8c\J	.	.	8r	8r	.	.	.	.
=40	=40	=40	=40	=40	=40	=40	=40	=40	=40	=40	=40	=40	=40	=40	=40
!	!	!	!	!	!LO:LB:g=original	!	!	!	!	!LO:LB:g=original	!	!	!	!	!LO:LB:g=original
4.GG/	2.GG/	.	2.G\	.	2.B\	.	2.d\	.	2.ryy	4g/	4dd\	2.ryy	8r	8r	8r
.	.	.	.	.	.	.	.	.	.	.	.	.	8dd\L	8g\L	8g\L
.	.	.	.	.	.	.	.	.	.	8r	8r	.	8dd\J	8g\J	8g\J
*	*	*	*	*	*	*	*	*	*	*	*	*	*tremolo	*tremolo	*tremolo
4.G\	.	.	.	.	.	.	.	.	.	8r	8r	.	8dd\L	8g\L	8g\L
.	.	.	.	.	.	.	.	.	.	8g/L	8dd\L	.	8dd\	8g\	8g\
.	.	.	.	.	.	.	.	.	.	8g/J	8dd\J	.	8dd\J	8g\J	8g\J
*	*	*	*	*	*	*	*	*	*	*	*	*	*Xtremolo	*Xtremolo	*Xtremolo
=41	=41	=41	=41	=41	=41	=41	=41	=41	=41	=41	=41	=41	=41	=41	=41
!	!	!	!	!	!	!	!	!	!	!	!	!	!	!LO:LB:g=original	!
2C/	2C/	-o	2E\	-o.	2c\	-o.	2c\	-o.	2.ryy	2e/	2cc\	2.ryy	2cc\	2e\	2g\
8r	4r	.	8r	.	8r	.	8r	.	.	8r	8r	.	8r	8r	8r
8r	.	.	8r	.	8r	.	8r	.	.	8r	8r	.	8r	8r	8r
==	==	==	==	==	==	==	==	==	==	==	==	==	==	==	==
*-	*-	*-	*-	*-	*-	*-	*-	*-	*-	*-	*-	*-	*-	*-	*-
!!!system-decoration: [(g1)]g2[(g3)]g4
!!!RDF**kern: <= below
!!!RDF**kern: >= above
!!!ENC: Anna Matuszewska
!!!END: 2020-06-17
